src/16/actions/twitter-mentions.svg

<svg xmlns="http://www.w3.org/2000/svg" width="16" height="16" viewBox="0 0 16 16">
 <defs>
  <style id="current-color-scheme" type="text/css">
   .ColorScheme-Text { color:#5d656b; } .ColorScheme-Highlight { color:#5294e2; }
  </style>
 </defs>
 <path style="fill:currentColor" class="ColorScheme-Text" d="M 10.634766 0.99609375 C 10.173857 1.0115105 9.7458312 1.2840094 9.5351562 1.7167969 C 7.6060562 1.6002269 5.7583188 2.7575219 5.0742188 4.6699219 C 4.4651988 6.4021219 3.2345563 8.6400594 2.5976562 8.7558594 C 2.4689462 8.8284594 2.3605706 8.9449431 2.3066406 9.0957031 C 2.1876606 9.4283131 2.3589462 9.7930494 2.6914062 9.9121094 L 11.992188 13.242188 C 12.324608 13.361247 12.687651 13.190002 12.806641 12.857422 C 12.860541 12.706662 12.850275 12.546043 12.796875 12.408203 C 12.378175 11.914293 12.846719 9.4031344 13.474609 7.6777344 C 14.158769 5.7653344 13.463237 3.6973 11.898438 2.5625 C 12.047307 1.93815 11.717549 1.2916125 11.099609 1.0703125 C 10.945124 1.0149825 10.788402 0.99095484 10.634766 0.99609375 z M 6.7441406 12.716797 C 6.4476006 13.545757 7.0116494 14.507181 8.0058594 14.863281 C 9.0000194 15.219341 10.04725 14.834819 10.34375 14.005859 L 6.7441406 12.716797 z"/>
</svg>

<svg xmlns="http://www.w3.org/2000/svg" width="16" height="16"><defs><style id="current-color-scheme" type="text/css"></style></defs><path d="M10.635.996c-.461.016-.89.288-1.1.72a4.456 4.456 0 0 0-4.46 2.954c-.61 1.732-1.84 3.97-2.477 4.086a.637.637 0 0 0 .094 1.156l9.3 3.33a.635.635 0 0 0 .805-.834c-.419-.494.05-3.005.678-4.73a4.461 4.461 0 0 0-1.577-5.115A1.265 1.265 0 0 0 10.635.996zm-3.89 11.72c-.297.83.267 1.791 1.26 2.147.995.356 2.042-.028 2.339-.857l-3.6-1.29z" fill="currentColor" color="#5d656b"/></svg>
